X: 34227
T: Reel St. Renard
R: reel
M: 4/4
K: Amajor
E3D|:CA,A,A, CA,A,A,|CEFG AcBA|GBGB EGBG|ABcd e2ED|
CA,A,A, CA,A,A,|CEFG AcBA|GBGB EGBG|1 AcBG AEED:|2 AcBG A2AG||
|:EAAE AAEA|cBAc BAEC|DGGE GEFG|BEFG (3FGF ED|
EAAE AAEA|cBAc BAEC|DGGE GEFG|1 AcBG A2AF:|2 AcBG AEED||

